X:66
M:2/4
L:1/8
K:G
| de/d/ Bd | Gd Bd | eg/e/ dB | AG E2 | 
de/d/ Bd | Gd Bd | eg/e/ dB | AG G2 :| 
| Bd ge/e/ | dB A/A/G | Bd ge/e/ | dB A2 | 

